frontend/css/icons/legal-advice.svg

<?xml version="1.0" encoding="UTF-8" standalone="no"?>
<svg viewBox="0 0 32 32" version="1.1" xmlns="http://www.w3.org/2000/svg" xmlns:xlink="http://www.w3.org/1999/xlink">
    <!-- Generator: Sketch 46.1 (44463) - http://www.bohemiancoding.com/sketch -->
    <title>icons/legal-advice</title>
    <desc>Created with Sketch.</desc>
    <defs></defs>
    <g id="Symbols" stroke="none" stroke-width="1" fill="none" fill-rule="evenodd">
        <g id="icons/legal-advice">
            <g id="Group-8">
                <circle id="Oval-2-Copy-2" fill="#FAB400" cx="16" cy="16" r="16"></circle>
                <path d="M25.954,17.9434 L23.2114,11.5342 L20.4674,17.9434 L25.954,17.9434 Z M26.5,17.9434 C26.5,18.9962 25.0272,19.8516 23.2114,19.8516 C21.3942,19.8516 19.9214,18.9962 19.9214,17.9434 L23.2114,10.2602 L26.5,17.9434 Z M11.5312,17.9434 L8.7872,11.5342 L6.0446,17.9434 L11.5312,17.9434 Z M12.0772,17.9434 C12.0772,18.9962 10.6044,19.8516 8.7872,19.8516 C6.9714,19.8516 5.5,18.9962 5.5,17.9434 L8.7872,10.2602 L12.0772,17.9434 Z M16.9604,10.2602 L16.9604,24.5934 L19.8458,24.5934 L19.8458,25.8464 L12.1542,25.8464 L12.1542,24.5934 L15.0382,24.5934 L15.0382,10.2602 L8.7872,10.2602 L8.7872,9.0072 L15.0382,9.0072 L15.0382,6 L16.9604,6 L16.9604,9.0072 L23.2114,9.0072 L23.2114,10.2602 L16.9604,10.2602 Z" id="Fill-1" fill="#FFFFFF"></path>
            </g>
        </g>
    </g>
</svg>

<!-- Generated by IcoMoon.io -->
<svg version="1.1" xmlns="http://www.w3.org/2000/svg" viewBox="0 0 32 32">
<title>legal-advice</title>
<path d="M16 32c8.837 0 16-7.163 16-16s-7.163-16-16-16c-8.837 0-16 7.163-16 16s7.163 16 16 16zM25.954 17.943l-2.743-6.409-2.744 6.409h5.487zM26.5 17.943c0 1.053-1.473 1.908-3.289 1.908-1.817 0-3.29-0.855-3.29-1.908l3.29-7.683 3.289 7.683zM11.531 17.943l-2.744-6.409-2.743 6.409h5.487zM12.077 17.943c0 1.053-1.473 1.908-3.29 1.908-1.816 0-3.287-0.855-3.287-1.908l3.287-7.683 3.29 7.683zM16.96 10.26v14.333h2.885v1.253h-7.692v-1.253h2.884v-14.333h-6.251v-1.253h6.251v-3.007h1.922v3.007h6.251v1.253h-6.251z"></path>
</svg>
